inst/assets/svg/wi-night-alt-rain.svg

<?xml version="1.0" encoding="UTF-8"?>
<svg xmlns="http://www.w3.org/2000/svg" xmlns:xlink="http://www.w3.org/1999/xlink" width="30pt" height="30pt" viewBox="0 0 30 30" version="1.1">
<g id="surface646">
<path style=" stroke:none;fill-rule:nonzero;fill:rgb(0%,0%,0%);fill-opacity:1;" d="M 4.070313 16.898438 C 4.070313 18.230469 4.539063 19.378906 5.46875 20.339844 C 6.398438 21.300781 7.539063 21.808594 8.871094 21.871094 C 8.988281 21.871094 9.050781 21.808594 9.050781 21.699219 L 9.050781 20.359375 C 9.050781 20.25 8.988281 20.191406 8.871094 20.191406 C 8.011719 20.140625 7.28125 19.800781 6.679688 19.160156 C 6.078125 18.519531 5.78125 17.769531 5.78125 16.898438 C 5.78125 16.070313 6.058594 15.351563 6.628906 14.730469 C 7.199219 14.109375 7.898438 13.761719 8.730469 13.660156 L 9.261719 13.621094 C 9.390625 13.621094 9.460938 13.558594 9.460938 13.449219 L 9.53125 12.910156 C 9.640625 11.828125 10.101563 10.921875 10.910156 10.191406 C 11.71875 9.460938 12.679688 9.089844 13.769531 9.089844 C 14.859375 9.089844 15.808594 9.460938 16.628906 10.191406 C 17.449219 10.921875 17.910156 11.828125 18.03125 12.910156 L 18.109375 13.480469 C 18.109375 13.601563 18.171875 13.660156 18.28125 13.660156 L 19.898438 13.660156 C 20.789063 13.660156 21.570313 13.980469 22.21875 14.621094 C 22.871094 15.261719 23.199219 16.019531 23.199219 16.898438 C 23.199219 17.769531 22.898438 18.519531 22.300781 19.160156 C 21.699219 19.800781 20.96875 20.140625 20.109375 20.191406 C 19.96875 20.191406 19.898438 20.25 19.898438 20.359375 L 19.898438 21.699219 C 19.898438 21.808594 19.96875 21.871094 20.109375 21.871094 C 21.441406 21.828125 22.570313 21.320313 23.488281 20.359375 C 24.421875 19.390625 24.878906 18.238281 24.878906 16.910156 C 24.878906 16.03125 24.648438 15.210938 24.199219 14.449219 C 25.011719 13.71875 25.53125 12.851563 25.78125 11.828125 L 25.921875 11.109375 C 25.929688 11.101563 25.941406 11.078125 25.941406 11.039063 C 25.941406 10.96875 25.890625 10.910156 25.78125 10.878906 L 25.21875 10.699219 C 24.648438 10.539063 24.160156 10.261719 23.761719 9.871094 C 23.351563 9.480469 23.058594 9.070313 22.890625 8.640625 C 22.71875 8.210938 22.628906 7.78125 22.628906 7.359375 C 22.609375 7.140625 22.640625 6.859375 22.710938 6.539063 L 22.851563 5.929688 C 22.890625 5.828125 22.851563 5.75 22.710938 5.691406 L 21.921875 5.449219 C 21.46875 5.351563 21.050781 5.300781 20.648438 5.300781 C 20.269531 5.300781 19.890625 5.339844 19.511719 5.429688 C 19.121094 5.519531 18.71875 5.648438 18.308594 5.839844 C 17.898438 6.019531 17.5 6.289063 17.109375 6.640625 C 16.71875 6.988281 16.390625 7.390625 16.109375 7.859375 C 15.289063 7.558594 14.511719 7.410156 13.78125 7.410156 C 12.371094 7.410156 11.109375 7.851563 10.019531 8.730469 C 8.929688 9.609375 8.21875 10.730469 7.910156 12.101563 C 6.800781 12.359375 5.890625 12.929688 5.171875 13.828125 C 4.429688 14.71875 4.070313 15.75 4.070313 16.898438 Z M 9.628906 23.738281 C 9.628906 23.910156 9.679688 24.070313 9.789063 24.230469 C 9.898438 24.390625 10.058594 24.5 10.28125 24.558594 C 10.511719 24.628906 10.730469 24.609375 10.921875 24.519531 C 11.121094 24.421875 11.25 24.238281 11.320313 23.960938 L 12.75 18.089844 C 12.808594 17.839844 12.78125 17.609375 12.671875 17.421875 C 12.550781 17.21875 12.378906 17.101563 12.148438 17.050781 C 11.929688 16.980469 11.71875 17 11.519531 17.121094 C 11.320313 17.230469 11.179688 17.398438 11.109375 17.628906 L 9.671875 23.53125 C 9.671875 23.539063 9.660156 23.570313 9.648438 23.621094 C 9.640625 23.671875 9.628906 23.710938 9.628906 23.738281 Z M 12.238281 26.808594 C 12.238281 26.96875 12.289063 27.121094 12.390625 27.269531 C 12.488281 27.421875 12.640625 27.519531 12.839844 27.578125 C 12.949219 27.609375 13.03125 27.621094 13.078125 27.621094 C 13.519531 27.621094 13.789063 27.421875 13.898438 27.03125 L 16.148438 18.101563 C 16.210938 17.859375 16.191406 17.640625 16.078125 17.449219 C 15.96875 17.261719 15.800781 17.128906 15.578125 17.058594 C 15.351563 16.988281 15.128906 17.011719 14.921875 17.128906 C 14.710938 17.25 14.578125 17.410156 14.53125 17.628906 L 12.269531 26.550781 C 12.269531 26.558594 12.269531 26.601563 12.261719 26.671875 C 12.238281 26.730469 12.238281 26.78125 12.238281 26.808594 Z M 16.398438 23.820313 C 16.398438 24.179688 16.609375 24.421875 17.03125 24.558594 C 17.171875 24.601563 17.269531 24.621094 17.328125 24.621094 C 17.441406 24.621094 17.558594 24.601563 17.679688 24.550781 C 17.890625 24.46875 18.019531 24.269531 18.070313 23.96875 L 19.5 18.101563 C 19.558594 17.859375 19.539063 17.648438 19.421875 17.449219 C 19.308594 17.261719 19.140625 17.128906 18.910156 17.058594 C 18.679688 16.988281 18.460938 17.011719 18.25 17.128906 C 18.039063 17.238281 17.921875 17.410156 17.871094 17.640625 L 16.441406 23.539063 C 16.421875 23.699219 16.398438 23.800781 16.398438 23.820313 Z M 17.578125 8.769531 C 17.898438 8.191406 18.328125 7.75 18.890625 7.441406 C 19.441406 7.140625 20.03125 6.988281 20.648438 7 C 20.769531 7 20.859375 7 20.921875 7.011719 L 20.921875 7.308594 C 20.910156 8.28125 21.160156 9.191406 21.691406 10.058594 C 22.210938 10.921875 22.949219 11.578125 23.898438 12.03125 C 23.679688 12.488281 23.410156 12.839844 23.109375 13.101563 C 22.191406 12.339844 21.121094 11.96875 19.878906 11.96875 L 19.570313 11.96875 C 19.300781 10.699219 18.640625 9.640625 17.578125 8.769531 Z M 17.578125 8.769531 "/>
</g>
</svg>

<?xml version="1.0" encoding="utf-8"?>
<!-- Generator: Adobe Illustrator 22.0.1, SVG Export Plug-In . SVG Version: 6.00 Build 0)  -->
<svg version="1.1" id="Layer_1" xmlns="http://www.w3.org/2000/svg" xmlns:xlink="http://www.w3.org/1999/xlink" x="0px" y="0px"
	 viewBox="0 0 30 30" style="enable-background:new 0 0 30 30;" xml:space="preserve">
<path d="M4.07,16.9c0,1.33,0.47,2.48,1.4,3.44s2.07,1.47,3.4,1.53c0.12,0,0.18-0.06,0.18-0.17v-1.34c0-0.11-0.06-0.17-0.18-0.17
	c-0.86-0.05-1.59-0.39-2.19-1.03c-0.6-0.64-0.9-1.39-0.9-2.26c0-0.83,0.28-1.55,0.85-2.17c0.57-0.62,1.27-0.97,2.1-1.07l0.53-0.04
	c0.13,0,0.2-0.06,0.2-0.17l0.07-0.54c0.11-1.08,0.57-1.99,1.38-2.72c0.81-0.73,1.77-1.1,2.86-1.1c1.09,0,2.04,0.37,2.86,1.1
	c0.82,0.73,1.28,1.64,1.4,2.72l0.08,0.57c0,0.12,0.06,0.18,0.17,0.18h1.62c0.89,0,1.67,0.32,2.32,0.96c0.65,0.64,0.98,1.4,0.98,2.28
	c0,0.87-0.3,1.62-0.9,2.26c-0.6,0.64-1.33,0.98-2.19,1.03c-0.14,0-0.21,0.06-0.21,0.17v1.34c0,0.11,0.07,0.17,0.21,0.17
	c1.33-0.04,2.46-0.55,3.38-1.51c0.93-0.97,1.39-2.12,1.39-3.45c0-0.88-0.23-1.7-0.68-2.46c0.81-0.73,1.33-1.6,1.58-2.62l0.14-0.72
	c0.01-0.01,0.02-0.03,0.02-0.07c0-0.07-0.05-0.13-0.16-0.16l-0.56-0.18c-0.57-0.16-1.06-0.44-1.46-0.83
	c-0.41-0.39-0.7-0.8-0.87-1.23c-0.17-0.43-0.26-0.86-0.26-1.28c-0.02-0.22,0.01-0.5,0.08-0.82l0.14-0.61c0.04-0.1,0-0.18-0.14-0.24
	l-0.79-0.24c-0.45-0.1-0.87-0.15-1.27-0.15c-0.38,0-0.76,0.04-1.14,0.13c-0.39,0.09-0.79,0.22-1.2,0.41
	c-0.41,0.18-0.81,0.45-1.2,0.8c-0.39,0.35-0.72,0.75-1,1.22c-0.82-0.3-1.6-0.45-2.33-0.45c-1.41,0-2.67,0.44-3.76,1.32
	s-1.8,2-2.11,3.37c-1.11,0.26-2.02,0.83-2.74,1.73C4.43,14.72,4.07,15.75,4.07,16.9z M9.63,23.74c0,0.17,0.05,0.33,0.16,0.49
	c0.11,0.16,0.27,0.27,0.49,0.33c0.23,0.07,0.45,0.05,0.64-0.04c0.2-0.1,0.33-0.28,0.4-0.56l1.43-5.87c0.06-0.25,0.03-0.48-0.08-0.67
	c-0.12-0.2-0.29-0.32-0.52-0.37c-0.22-0.07-0.43-0.05-0.63,0.07c-0.2,0.11-0.34,0.28-0.41,0.51l-1.44,5.9
	c0,0.01-0.01,0.04-0.02,0.09C9.64,23.67,9.63,23.71,9.63,23.74z M12.24,26.81c0,0.16,0.05,0.31,0.15,0.46
	c0.1,0.15,0.25,0.25,0.45,0.31c0.11,0.03,0.19,0.04,0.24,0.04c0.44,0,0.71-0.2,0.82-0.59l2.25-8.93c0.06-0.24,0.04-0.46-0.07-0.65
	c-0.11-0.19-0.28-0.32-0.5-0.39c-0.23-0.07-0.45-0.05-0.66,0.07s-0.34,0.28-0.39,0.5l-2.26,8.92c0,0.01,0,0.05-0.01,0.12
	C12.24,26.73,12.24,26.78,12.24,26.81z M16.4,23.82c0,0.36,0.21,0.6,0.63,0.74c0.14,0.04,0.24,0.06,0.3,0.06
	c0.11,0,0.23-0.02,0.35-0.07c0.21-0.08,0.34-0.28,0.39-0.58l1.43-5.87c0.06-0.24,0.04-0.45-0.08-0.65
	c-0.11-0.19-0.28-0.32-0.51-0.39c-0.23-0.07-0.45-0.05-0.66,0.07c-0.21,0.11-0.33,0.28-0.38,0.51l-1.43,5.9
	C16.42,23.7,16.4,23.8,16.4,23.82z M17.58,8.77c0.32-0.58,0.75-1.02,1.31-1.33c0.55-0.3,1.14-0.45,1.76-0.44
	c0.12,0,0.21,0,0.27,0.01v0.3c-0.01,0.97,0.24,1.88,0.77,2.75c0.52,0.86,1.26,1.52,2.21,1.97c-0.22,0.46-0.49,0.81-0.79,1.07
	c-0.92-0.76-1.99-1.13-3.23-1.13h-0.31C19.3,10.7,18.64,9.64,17.58,8.77z"/>
</svg>
